X:3266
L:1/8
Q:1/2=80
M:2/2
K:Amix
 f | d/d/d dD FAA=c | BG=cG ECGE | d/d/d dD FAAg | fd ec dA A || g | fdfg abaf | ge=cg ecge | 
 defg abag | fdec dAAg | fdfg abaf | ge=cg ecge | fdge afge | fdec dA A2 |]

